X:18
T:Dingle Regatta
R:jig
M:6/8
L:1/8
K:D
dcd e2d | BAB d2B | ABA AGA | B2A G3 | dcd e2d | BAB d2B |
ABA B2A | G3- G3 :: d3 def | g3 gfg | a3 aga | b2a gfe | d3 def |
g3 gab | a2g f2e | def g3 :: gfg dgd | BdB GBG | FAF DEF|
GAB def | gfg dgd | BdB GBG | FAF DEF | G3 G3 :|
